X:4
T:Rond-de-Loudeac
R:rond
O:Bretagne
Z:id:hn-rond-4
M:4/4
Q:1/4=180
K:Ador
A | Ac BA GA AG | Ac BA G2 A2 | Ac BA GA AG | Ac BA G3 :|
|: A | Bc dc BA BF | Bc dc B3 :|
|: B | Ac ec GB dB | AB cd ed cB | Ac ec GB dB | AB cB GA A :|

